docs/local/img/index-question/d.svg

<svg width="440" height="499" viewBox="0 0 440 499" fill="none" xmlns="http://www.w3.org/2000/svg"><path opacity=".05" fill-rule="evenodd" clip-rule="evenodd" d="M0 499h182.862C362.138 499 440 383.519 440 249.5 440 137.585 388.571 0 182.862 0H0v499zm140.002-122.67V122.663a2.91 2.91 0 01.855-2.053 2.922 2.922 0 012.057-.853h12.771c138.546 0 140.002 101.942 140.002 129.743 0 25.663-1.43 129.737-140.002 129.737h-12.771a2.927 2.927 0 01-2.057-.853 2.911 2.911 0 01-.855-2.054z" fill="#fff"/></svg>

<svg width="440" height="499" viewBox="0 0 440 499" fill="none" xmlns="http://www.w3.org/2000/svg">
<path opacity="0.05" fill-rule="evenodd" clip-rule="evenodd" d="M0 499H182.862C362.138 499 440 383.519 440 249.5C440 137.585 388.571 0 182.862 0H0V499ZM140.002 376.33V122.663C140.004 121.893 140.311 121.155 140.857 120.61C141.403 120.065 142.143 119.759 142.914 119.757H155.685C294.231 119.757 295.687 221.699 295.687 249.5C295.687 275.163 294.257 379.237 155.685 379.237H142.914C142.143 379.235 141.403 378.928 140.857 378.384C140.311 377.839 140.004 377.101 140.002 376.33V376.33Z" fill="white"/>
</svg>
